static/img/kroki/af4dfab642029d1c6eb6bf5f896ddf28.svg

<?xml version="1.0" encoding="us-ascii" standalone="no"?><svg xmlns="http://www.w3.org/2000/svg" xmlns:xlink="http://www.w3.org/1999/xlink" contentStyleType="text/css" height="535px" preserveAspectRatio="none" style="width:320px;height:535px;" version="1.1" viewBox="0 0 320 535" width="320px" zoomAndPan="magnify"><defs/><g><!--class aws_resource--><g id="elem_aws_resource"><rect codeLine="23" fill="#3D176E" height="39.7891" id="aws_resource" rx="2.5" ry="2.5" style="stroke:#000D19;stroke-width:0.5;" width="155" x="82.5" y="167.79"/><ellipse cx="97.5" cy="187.6845" fill="#ADD1B2" rx="11" ry="11" style="stroke:#181818;stroke-width:1.0;"/><path d="M100.4688,193.3252 Q99.8906,193.622 99.25,193.7627 Q98.6094,193.9189 97.9063,193.9189 Q95.4063,193.9189 94.0781,192.2783 Q92.7656,190.622 92.7656,187.497 Q92.7656,184.372 94.0781,182.7158 Q95.4063,181.0595 97.9063,181.0595 Q98.6094,181.0595 99.25,181.2158 Q99.9063,181.372 100.4688,181.6689 L100.4688,184.3877 Q99.8438,183.8095 99.25,183.5439 Q98.6563,183.2627 98.0313,183.2627 Q96.6875,183.2627 96,184.3408 Q95.3125,185.4033 95.3125,187.497 Q95.3125,189.5908 96,190.6689 Q96.6875,191.7314 98.0313,191.7314 Q98.6563,191.7314 99.25,191.4658 Q99.8438,191.1845 100.4688,190.6064 L100.4688,193.3252 Z " fill="#000000"/><text fill="#D9B8FF" font-family="Helvetica" font-size="17" lengthAdjust="spacing" textLength="113" x="116.5" y="193.5698">aws_resource</text></g><!--class aws_sagemaker_job--><g id="elem_aws_sagemaker_job"><rect codeLine="26" fill="#3D176E" height="39.7891" id="aws_sagemaker_job" rx="2.5" ry="2.5" style="stroke:#000D19;stroke-width:0.5;" width="210" x="55" y="328.58"/><ellipse cx="70" cy="348.4745" fill="#ADD1B2" rx="11" ry="11" style="stroke:#181818;stroke-width:1.0;"/><path d="M72.9688,354.1152 Q72.3906,354.412 71.75,354.5527 Q71.1094,354.7089 70.4063,354.7089 Q67.9063,354.7089 66.5781,353.0683 Q65.2656,351.412 65.2656,348.287 Q65.2656,345.162 66.5781,343.5058 Q67.9063,341.8495 70.4063,341.8495 Q71.1094,341.8495 71.75,342.0058 Q72.4063,342.162 72.9688,342.4589 L72.9688,345.1777 Q72.3438,344.5995 71.75,344.3339 Q71.1563,344.0527 70.5313,344.0527 Q69.1875,344.0527 68.5,345.1308 Q67.8125,346.1933 67.8125,348.287 Q67.8125,350.3808 68.5,351.4589 Q69.1875,352.5214 70.5313,352.5214 Q71.1563,352.5214 71.75,352.2558 Q72.3438,351.9745 72.9688,351.3964 L72.9688,354.1152 Z " fill="#000000"/><text fill="#D9B8FF" font-family="Helvetica" font-size="17" lengthAdjust="spacing" textLength="168" x="89" y="354.3598">aws_sagemaker_job</text></g><!--class aws_sagemaker_processing_job--><g id="elem_aws_sagemaker_processing_job"><rect codeLine="29" fill="#3D176E" height="39.7891" id="aws_sagemaker_processing_job" rx="2.5" ry="2.5" style="stroke:#000D19;stroke-width:0.5;" width="306" x="7" y="489.37"/><ellipse cx="22" cy="509.2645" fill="#ADD1B2" rx="11" ry="11" style="stroke:#181818;stroke-width:1.0;"/><path d="M24.9688,514.9052 Q24.3906,515.202 23.75,515.3427 Q23.1094,515.4989 22.4063,515.4989 Q19.9063,515.4989 18.5781,513.8583 Q17.2656,512.202 17.2656,509.077 Q17.2656,505.952 18.5781,504.2958 Q19.9063,502.6395 22.4063,502.6395 Q23.1094,502.6395 23.75,502.7958 Q24.4063,502.952 24.9688,503.2489 L24.9688,505.9677 Q24.3438,505.3895 23.75,505.1239 Q23.1563,504.8427 22.5313,504.8427 Q21.1875,504.8427 20.5,505.9208 Q19.8125,506.9833 19.8125,509.077 Q19.8125,511.1708 20.5,512.2489 Q21.1875,513.3114 22.5313,513.3114 Q23.1563,513.3114 23.75,513.0458 Q24.3438,512.7645 24.9688,512.1864 L24.9688,514.9052 Z " fill="#000000"/><text fill="#D9B8FF" font-family="Helvetica" font-size="17" lengthAdjust="spacing" textLength="264" x="41" y="515.1498">aws_sagemaker_processing_job</text></g><!--class resource--><g id="elem_resource"><rect codeLine="32" fill="#3D176E" height="39.7891" id="resource" rx="2.5" ry="2.5" style="stroke:#000D19;stroke-width:0.5;" width="113" x="103.5" y="7"/><ellipse cx="118.5" cy="26.8945" fill="#ADD1B2" rx="11" ry="11" style="stroke:#181818;stroke-width:1.0;"/><path d="M121.4688,32.5352 Q120.8906,32.832 120.25,32.9727 Q119.6094,33.1289 118.9063,33.1289 Q116.4063,33.1289 115.0781,31.4883 Q113.7656,29.832 113.7656,26.707 Q113.7656,23.582 115.0781,21.9258 Q116.4063,20.2695 118.9063,20.2695 Q119.6094,20.2695 120.25,20.4258 Q120.9063,20.582 121.4688,20.8789 L121.4688,23.5977 Q120.8438,23.0195 120.25,22.7539 Q119.6563,22.4727 119.0313,22.4727 Q117.6875,22.4727 117,23.5508 Q116.3125,24.6133 116.3125,26.707 Q116.3125,28.8008 117,29.8789 Q117.6875,30.9414 119.0313,30.9414 Q119.6563,30.9414 120.25,30.6758 Q120.8438,30.3945 121.4688,29.8164 L121.4688,32.5352 Z " fill="#000000"/><text fill="#D9B8FF" font-family="Helvetica" font-size="17" lengthAdjust="spacing" textLength="71" x="137.5" y="32.7798">resource</text></g><!--reverse link resource to aws_resource--><g id="link_resource_aws_resource"><path codeLine="35" d="M160,65.05 C160,95.57 160,136.9 160,167.47 " fill="none" id="resource-backto-aws_resource" style="stroke:#FFAF37;stroke-width:2.0;"/><polygon fill="none" points="160,47.05,154,65.05,166,65.05,160,47.05" style="stroke:#FFAF37;stroke-width:2.0;"/></g><!--reverse link aws_resource to aws_sagemaker_job--><g id="link_aws_resource_aws_sagemaker_job"><path codeLine="36" d="M160,225.84 C160,256.36 160,297.69 160,328.25 " fill="none" id="aws_resource-backto-aws_sagemaker_job" style="stroke:#FFAF37;stroke-width:2.0;"/><polygon fill="none" points="160,207.84,154,225.84,166,225.84,160,207.84" style="stroke:#FFAF37;stroke-width:2.0;"/></g><!--reverse link aws_sagemaker_job to aws_sagemaker_processing_job--><g id="link_aws_sagemaker_job_aws_sagemaker_processing_job"><path codeLine="37" d="M160,386.63 C160,417.15 160,458.48 160,489.04 " fill="none" id="aws_sagemaker_job-backto-aws_sagemaker_processing_job" style="stroke:#FFAF37;stroke-width:2.0;"/><polygon fill="none" points="160,368.63,154,386.63,166,386.63,160,368.63" style="stroke:#FFAF37;stroke-width:2.0;"/></g><!--SRC=[XP9DJyCm38Rl-HMHTfxKCK4tYSkOXE0o8SPzSXDd2ssJoacfniT_fsCmqcOVn_XzP3-sij4IEPQLt_8Iomp9CPThKm51oMT4jfdRmX8VA0LgdFR3UslyHM019V87BDxGQm5zucMZHMxGENuLH7SWyZNPsiXzUqzWN1kXyG4rBy2vcVUaizfZ82EdsKIfFjblEXZBKNg34MP98lqYIPB8qRIFN1nrTky3iTJlo4VXqHRMOwGPZVYXpbhkY40oMlGlF-du159gi-RNGUrvxqG6gLDVRa3QPaShA5mundaaj7vRuJpQ2gSJgTAZyECfc8dTwJWqRaNeR4q2-GTZNq7TmHfBo95MhpOx7LPaHVlfMka-rsryUDr-3eV3pcJMqVZFEmOiTZf6TdNODm00]--></g></svg>

<svg xmlns="http://www.w3.org/2000/svg" width="320" height="535" viewBox="0 0 320 535"><rect width="155" height="39.789" x="82.5" y="167.79" fill="#3D176E" rx="2.5" ry="2.5" style="stroke:#000d19;stroke-width:.5"/><circle cx="97.5" cy="187.685" r="11" fill="#ADD1B2" style="stroke:#181818;stroke-width:1"/><path d="M100.469 193.325q-.578.297-1.219.438-.64.156-1.344.156-2.5 0-3.828-1.64-1.312-1.657-1.312-4.782t1.312-4.781q1.328-1.656 3.828-1.656.703 0 1.344.156.656.156 1.219.453v2.719q-.625-.578-1.219-.844-.594-.281-1.219-.281-1.344 0-2.031 1.078-.687 1.062-.687 3.156t.687 3.172q.688 1.062 2.031 1.062.625 0 1.219-.265.594-.281 1.219-.86z"/><text x="116.5" y="193.57" fill="#D9B8FF" font-family="Helvetica" font-size="17" textLength="113">aws_resource</text><rect width="210" height="39.789" x="55" y="328.58" fill="#3D176E" rx="2.5" ry="2.5" style="stroke:#000d19;stroke-width:.5"/><circle cx="70" cy="348.474" r="11" fill="#ADD1B2" style="stroke:#181818;stroke-width:1"/><path d="M72.969 354.115q-.578.297-1.219.438-.64.156-1.344.156-2.5 0-3.828-1.64-1.312-1.657-1.312-4.782t1.312-4.781q1.328-1.656 3.828-1.656.703 0 1.344.156.656.156 1.219.453v2.719q-.625-.579-1.219-.844-.594-.281-1.219-.281-1.344 0-2.031 1.078-.687 1.062-.687 3.156t.687 3.172q.688 1.062 2.031 1.062.625 0 1.219-.265.594-.281 1.219-.86z"/><text x="89" y="354.36" fill="#D9B8FF" font-family="Helvetica" font-size="17" textLength="168">aws_sagemaker_job</text><rect width="306" height="39.789" x="7" y="489.37" fill="#3D176E" rx="2.5" ry="2.5" style="stroke:#000d19;stroke-width:.5"/><circle cx="22" cy="509.264" r="11" fill="#ADD1B2" style="stroke:#181818;stroke-width:1"/><path d="M24.969 514.905q-.578.297-1.219.438-.64.156-1.344.156-2.5 0-3.828-1.64-1.312-1.657-1.312-4.782t1.312-4.781q1.328-1.656 3.828-1.656.703 0 1.344.156.656.156 1.219.453v2.719q-.625-.579-1.219-.844-.594-.281-1.219-.281-1.343 0-2.031 1.078-.687 1.062-.687 3.156t.687 3.172q.688 1.062 2.031 1.062.625 0 1.219-.265.594-.282 1.219-.86z"/><text x="41" y="515.15" fill="#D9B8FF" font-family="Helvetica" font-size="17" textLength="264">aws_sagemaker_processing_job</text><rect width="113" height="39.789" x="103.5" y="7" fill="#3D176E" rx="2.5" ry="2.5" style="stroke:#000d19;stroke-width:.5"/><circle cx="118.5" cy="26.895" r="11" fill="#ADD1B2" style="stroke:#181818;stroke-width:1"/><path d="M121.469 32.535q-.578.297-1.219.438-.64.156-1.344.156-2.5 0-3.828-1.64-1.312-1.657-1.312-4.782t1.312-4.781q1.328-1.656 3.828-1.656.703 0 1.344.156.656.156 1.219.453v2.719q-.625-.578-1.219-.844-.594-.281-1.219-.281-1.344 0-2.031 1.078-.687 1.062-.687 3.156t.687 3.172q.688 1.062 2.031 1.062.625 0 1.219-.265.594-.281 1.219-.86z"/><text x="137.5" y="32.78" fill="#D9B8FF" font-family="Helvetica" font-size="17" textLength="71">resource</text><path fill="none" d="M160 65.05v102.42m0-120.42-6 18h12zm0 178.79v102.41m0-120.41-6 18h12zm0 178.79v102.41m0-120.41-6 18h12z" style="stroke:#ffaf37;stroke-width:2"/></svg>
